X:1
T:Ben dissi dolce
T:Ben dissi dolce
T:Giovanni Pietro Biandra
T:Source : Madrigaletti a 1, 2 e 3 voci. Libro primo---Venezia---B.Magni (Gardano)---1626. Editor : André Vierendeels (11/03/15).
T:Notes : Original clefs : C1, C3, F4 Editorial accidentals above the staff Figures in BC are notated in original print  
C:Giovanni Pietro Biandra
%%score [ 1 2 ] { 3 | 4 }
L:1/8
Q:1/4=80
M:4/4
K:F
V:1 treble nm="Canto" snm="C"
V:2 treble nm="Alto" snm="A"
V:3 treble nm="BC" snm="BC"
V:4 bass 
V:1
 z2 G2 BAAG | A2 A2 z2 c2- | c2 BB B3 A | A6 c2 | F4 A4 | G6 ^F2 | G2 =B2 c4- |"^b" cBBA BA Bc | %8
w: Ben dis- si dol- ce'a-|mo- re e-|* ra- no trop- po'a-|cer- bi'e'a-|ma- ri|frut- *|ti s'al fin|_ in duol' e'in lu- * * *|
 B4 A4 | z4 d2 cB |"^-natural" A2 B2 ^c2 d2- | d2 ^c2 d4 | z2 A2 B3 c | A2 G2 A4 | G4 d4 | %15
w: * ti,|lun- gi da|te mio So- *|* * le|do- ve'a- lan-|guir- s'il co-|re, lan-|
 d2 c4 =B2 | c8 | z GGG G2 G2 | z2 BB c2 cc | d2 d2 z4 | z8 | z BBB B2 B2 | z ccc c2 c2 | %23
w: guir- s'il co-|re,|ma poi che'as- col- to|le bra- ma- te pa-|ro- le,||ma poi che'as- col- to,|ma poi che'as- col- to|
 z2 dd _e2 ed | d4 c4 | z8 | z2 d4 ^cc | dAdc B3 c | c4 B2 d2- | d2 cc dAdc | B4 A2 d2- | %31
w: le bra- ma- te pa-|ro- le,||e raf- fi-|gu- ro quel ce- le- ste|vol- to, e|_ raf- fi- gu- ro quel ce-|le- ste vol-|
 d2 ^c2 d4 | z8 | B/F/G/A/ B/c/d/e/ f2 _e2 | d2 dd c2 d2 | _e3 d d4 | c4 c2 G2 | B2 AG A2 B2 | %38
w: * * to,||O _ _ _ _ _ _ _ _ fe-|li- ci so- spi- ri'o'a-|ma- ti sten-|ti, ch'ac- cre-|sce- te dol- cez- za'i|
 c4- cB A2 | G4 z4 | F/C/D/E/ F/G/A/B/ c4- | c2 B2 B2 AG | A2 A2 z4 | z8 | z2 d2 _e4- | e2 B2 A4 | %46
w: miei _ con- ten-|ti,|O _ _ _ _ _ _ _ _|_ fe- li- ci so-|spi- ri,||O'a- ma-|* ti sten-|
 G4 z4 | d2 A2 c2 BA | B2 B2 z2 d2- | d2 c4 B2 | A8 | G8 |] %52
w: ti,|ch'ac- cre- sce- te dol-|cez- za ai|_ miei con-|ten-|ti.|
V:2
 z8 | z2 D2 _EDDC | D2 D2 z2 G2- | G2 FF F3 E | D6 F2 | B,2 C2 A,4 | G,2 D2 _E4- | EDDC DC D=E | %8
w: |Ben dis- si dol- cea-|mo- re e|_ ra- no trop- po'a-|cer- bi'e'a-|ma- ri frut-|ti s'al fin|_ in duol' en lu- * * *|
 ^F2 G4 F2 |"^-natural" G2 FE D2 E2 | F2 G2 A2 GF | E4 D4 | A4 A2 G2 | ^F2 G4 F2 | G4 z2 D2 | %15
w: * * ti,|lun- gi da te mio|So- * * * *|* le|do- ve'a lan-|guir- s'il co-|re, lan-|
 _E3 F D4 | C8 | z8 | z8 | z DDD D2 D2 | z2 _EE F2 FF | G2 G2 z4 | z _EEE E2 E2 | z2 =B,B, C2 CC | %24
w: guir- s'il co-|re,|||ma poi ch'as- col- to|le bra- ma- te pa-|ro- le,|ma poi che'as- col- to|le bra- ma- te pa-|
 C2 =B,2 C2 G2- | G2 ^FF GDGF | EF GF E4 | D4 z2 B2- | B2 AA BFBA | G2 G4 ^F2 | %30
w: ro- * le, e|_ raf- fi- gu- ro quel ce-|le- * ste _ vol-|to, e|_ raf- fi- gu- ro quel ce-|le- ste vol-|
"^-natural""^-natural" G2 DE F2 F2 | E4 D4 | z4 B,/F,/G,/A,/ B,/C/D/E/ | F2 E2 D2 CC | %34
w: to, quel ce- le- ste|vol- to,|O _ _ _ _ _ _ _|_ fe- li- ci so-|
 B,2 B,2 z2 A,2 | =B,2 C4 B,2 | C4 z4 | G2 D2 F2 ED | EFGE ^F G2 F | G4 z4 | z8 | z8 | %42
w: spi- ri, o'a-|ma- ti sten-|ti,|ch'ac- cre- sce- te dol-|cez- za'i miei con- ten- * *|ti,|||
 D/A,/B,/C/ D/E/F/G/ A4- | A2 G2 G2 FE | F2 F2 z2 G2 | B2 G4 ^F2 | G4 G2 D2 | F2 ED E2 E2 | %48
w: O _ _ _ _ _ _ _ _|_ fe- li- ci so-|spi- ri o'a-|ma- ti sten-|ti, ch'ac- cre-|sce- te dol- cez- za|
 z2 G4 F2- | F2 E2 D2 G2- | G2 ^FE F4 | G8 |] %52
w: ai miei|_ con- ten- *||ti.|
V:3
 z8 | z8 | z8 | z8 | z8 | z8 | z8 | z8 | z8 | z8 | z8 | z8 | z8 | z8 | z8 | z8 | z8 | z8 | z8 | %19
"^6" z8 | z8 | z8 | z8 | z8 | z8 | z8 | z8 | z8 | z8 | z8 | z8 | z8 | z8 | z8 | z8 | z8 | z8 | z8 | %38
 z8 | z8 | z8 | z8 | z8 | z8 | z8 | z8 | z8 | z8 | z8 | z8 | z8 | z8 |] %52
V:4
 G,8 | D,4 C,4 |"^6" G,4 _E,2 B,,2 | C,2 D,2 A,,4 | B,,4 F,,4 |"^b" G,,2 C,2 D,4 | %6
"^3 4""^5     b6" G,,8 | G,,8 |"^6            5""^3      4           3" D,8 | G,,2 A,,2 B,,2 C,2 | %10
 D,2 C,B,, A,,4- | A,,4 D,4 |"^6""^5" ^C,4 D,4- | D,4 D,4 | G,,8 | G,,8 | C,8 | G,8 | %18
 _E,2 D,2 E,2 F,2 |"^5" B,,8 | C,4 B,,4 | _E,8 | C,8 | G,4 C,2 F,2 | G,4 C,4 | D,4 G,,4 | %26
 A,,2 G,,2 A,,4 | D,4 G,2 _E,2 | F,4 B,,4 |"^56" _E,4 D,4 | G,,4 D,4 | A,,4 D,4 | z4 B,,4 | B,,8 | %34
 B,,4 F,4 |"^b6         5" G,8 | C,8 | G,,4 D,4 | C,4 D,4 | G,,4 z4 | F,,8 | G,,8 | D,8 | G,8 | %44
 D,2 B,,2 C,4 | G,,4 C,2 D,2 | G,,8 | D,4 A,,4 | G,,4 D,4 | A,,4 B,,3 C, | D,8 | G,,8 |] %52

